X:1
T:Partition sans titre
C:Compositeur / Arrangeur
L:1/8
M:4/4
I:linebreak $
K:G
V:1 treble nm="Violon" snm="Vln."
V:1
"G" g2 g2 dgeg | dgeg ddBd |"C" edef"G" g2"C" Pe2 |[M:2/4]"D" dd ef |[M:4/4]"G" g2 g2 dgeg | %5
 dgeg ddBd |"C" Pe2 dc"G" BG"D"AF | FcBG"G" DGGF |1[M:2/4] G2 (3def :|2 G2 GG |: %10
[M:4/4]"G" DGGG G2 GA | Bddd"C" Pe2"G" d2 |"D" DFFF F2 FG | ABcA"G" BGGG |"G" DGGF G2 GA | %15
 BdBd"C" efge |"G" dBGB"C" cA"D"FA |1"G" G2 GF G2 GG :|2"G" G2 GF G2 (3def |] %19
